svg/u1f434.svg

<svg viewBox="0 0 128 128" xmlns="http://www.w3.org/2000/svg">
  <path d="M67.79,14.3c0,0,4.54,4.26,11.47,6.97c8.09,3.17,21.9,1.34,25.27,7.67 c3.52,6.62-3.76,14.22-2.53,18.16c1.21,3.89,13.06,4.56,14.5,13.66c1.48,9.36-6.09,13.23-5.35,16.33c0.86,3.59,9.36,5,9.57,11.68 c0.16,5.21-4.65,10.01-5.06,13.23c-0.7,5.43,2.8,8.23,0.77,13.52c-1.13,2.94-3.87,4.36-5.84,4.79s-14.5-19.15-14.5-19.15 L65.68,17.54L67.79,14.3z" fill="#845846"/>
  <path d="M49.12,31.85c0,0-12.2,8.45-18.11,15.2s-12.86,14.83-13.33,15.2c-0.47,0.38-8.82,4.79-10.79,12.67 c-1.31,5.23,1.69,12.76,6.1,15.2s8.68,2,13.61-0.66c4.88-2.63,8.35-5.35,8.35-5.35s9.83,0.11,13.8-0.19 c5.07-0.38,10.89-1.5,10.89-1.5s-2.57,9.93-3.38,16.32c-1.01,7.97-3.94,19.44-3.19,20.38c0.75,0.94,7.91,2.8,18.49,3.57 c12.17,0.88,27.36-0.25,31.01-0.88c4.05-0.7,7.66-1.09,8.04-1.79c0.38-0.7-1.31-12.9-2.53-21.47 c-2.51-17.58-11.38-41.07-14.48-46.98c-3.1-5.91-6.73-11.74-11.33-16.72s-7.7-6.57-7.7-6.57s1.03-2.53,0.66-5.54 s-5.16-12.58-6.1-14.36c-0.94-1.78-2.5-5.09-4.48-4.93c-1.76,0.14-3.31,5.96-4.43,9.81s-4.04,12.29-4.04,12.29L49.12,31.85z" fill="#FEAF5F"/>
  <path d="M26.31,22.84c-1.58,0.98,0.76,8.44,4.6,12.2c4.32,4.22,11,6.76,19.64,4.32 c8.63-2.44,10.77-7.98,10.77-7.98s-2.82-3.28-3-7.13s1.6-9.76,1.6-9.76s-2.82-1.31-7.88,0.75S39.61,25.26,35.98,25.75 C31.1,26.41,28.28,21.62,26.31,22.84z" fill="#825948"/>
  <ellipse cx="53.55" cy="54.13" fill="#00000D" rx="4.41" ry="5.28" transform="matrix(0.998 -0.0636 0.0636 0.998 -3.3337 3.5149)"/>
  <path d="M67.79,75.04c-3.24,2.67-6.93,4.63-9.27,5.89c-1.69,0.92-5.3,2.14-6.22,2.42 c-0.92,0.28,2.3,0.31,4.15,0.35c3.24,0.08,10.98-0.77,14.08-2.67c3.1-1.9,5.51-8.68,6.01-10.51c0.49-1.83,2.67-8.87,0.7-8.94 S71.71,71.81,67.79,75.04z" fill="#CD935F"/>
  <radialGradient id="SVGID_1_" cx="6.9777" cy="87.7853" gradientUnits="userSpaceOnUse" r="39.1459">
    <stop offset="0.5064" stop-color="#FFE5C6"/>
    <stop offset="0.5679" stop-color="#FFDAB2"/>
    <stop offset="0.6931" stop-color="#FEC88E"/>
    <stop offset="0.8106" stop-color="#FEBA74"/>
    <stop offset="0.9163" stop-color="#FEB264"/>
    <stop offset="1" stop-color="#FEAF5F"/>
  </radialGradient>
  <path d="M32.11,49.21c0,0-7.04,7.88-8.17,9.15c-1.13,1.27-4.5,6.34-4.5,6.34s-5.14,1.9-7.67,5.07 s-4.08,8.31-1.97,13.16s5.77,8.38,11.68,6.69c6.44-1.84,12.04-7.46,12.04-7.46s8.52,0.35,11.12,0.21c2.6-0.14,13.02-3.45,13.02-3.45 l-21.05-34.7L32.11,49.21z" fill="url(#SVGID_1_)"/>
  <path d="M17.96,70.12c-1.36,1.2,0.21,3.59,0.77,4.86s0.07,3.73,1.83,3.8c1.76,0.07,3.24-4.29,2.39-6.55 C22.11,69.98,19.72,68.57,17.96,70.12z" fill="#513635"/>
  <path d="M12.33,89.99c0,0,2.63-1.69,4.18-2.67s7.7-6.15,7.7-6.15l1.83,1.64c0,0-3.38,3.52-5.77,5.44 c-2.39,1.92-3.85,2.49-5.3,2.63C13.54,91.02,12.33,89.99,12.33,89.99z" fill="#2D3133"/>
  <path d="M26.41,79.06c1.64,0.82,0.74,2.62,0.28,3.33c-0.61,0.94-2.06,2.06-3.24,1.08 c-1.17-0.99,0.28-3.28,0.94-3.89C24.87,79.12,25.84,78.78,26.41,79.06z" fill="#000502"/>
</svg>

<svg viewBox="0 0 128 128" xmlns="http://www.w3.org/2000/svg">
  <defs>
    <radialGradient id="SVGID_1_" cx="6.9777" cy="87.7853" gradientUnits="userSpaceOnUse" r="39.1459">
      <stop offset="0.5064" stop-color="#FFE5C6"/>
      <stop offset="0.5679" stop-color="#FFDAB2"/>
      <stop offset="0.6931" stop-color="#FEC88E"/>
      <stop offset="0.8106" stop-color="#FEBA74"/>
      <stop offset="0.9163" stop-color="#FEB264"/>
      <stop offset="1" stop-color="#FEAF5F"/>
    </radialGradient>
  </defs>
  <path d="M67.79,14.3 C67.79,14.3 72.33,18.56 79.26,21.27 C87.35,24.44 101.16,22.61 104.53,28.94 C108.05,35.56 100.77,43.16 102,47.1 C103.21,50.99 115.06,51.66 116.5,60.76 C117.98,70.12 110.41,73.99 111.15,77.09 C112.01,80.68 120.51,82.09 120.72,88.77 C120.88,93.98 116.07,98.78 115.66,102 C114.96,107.43 118.46,110.23 116.43,115.52 C115.3,118.46 112.56,119.88 110.59,120.31 C108.62,120.74 96.09,101.16 96.09,101.16 L65.68,17.54 L67.79,14.3 Z" fill="#845846"/>
  <path d="M49.12,31.85 C49.12,31.85 36.92,40.3 31.01,47.05 C25.1,53.8 18.15,61.88 17.68,62.25 C17.21,62.63 8.86,67.04 6.89,74.92 C5.58,80.15 8.58,87.68 12.99,90.12 C17.4,92.56 21.67,92.12 26.6,89.46 C31.48,86.83 34.95,84.11 34.95,84.11 C34.95,84.11 44.78,84.22 48.75,83.92 C53.82,83.54 59.64,82.42 59.64,82.42 C59.64,82.42 57.07,92.35 56.26,98.74 C55.25,106.71 52.32,118.18 53.07,119.12 C53.82,120.06 60.98,121.92 71.56,122.69 C83.73,123.57 98.92,122.44 102.57,121.81 C106.62,121.11 110.23,120.72 110.61,120.02 C110.99,119.32 109.3,107.12 108.08,98.55 C105.57,80.97 96.7,57.48 93.6,51.57 C90.5,45.66 86.87,39.83 82.27,34.85 C77.67,29.87 74.57,28.28 74.57,28.28 C74.57,28.28 75.6,25.75 75.23,22.74 C74.86,19.73 70.07,10.16 69.13,8.38 C68.19,6.6 66.63,3.29 64.65,3.45 C62.89,3.59 61.34,9.41 60.22,13.26 C59.1,17.11 56.18,25.55 56.18,25.55 L49.12,31.85 Z" fill="#FEAF5F"/>
  <path d="M26.31,22.84 C24.73,23.82 27.07,31.28 30.91,35.04 C35.23,39.26 41.91,41.8 50.55,39.36 C59.18,36.92 61.32,31.38 61.32,31.38 C61.32,31.38 58.5,28.1 58.32,24.25 C58.14,20.4 59.92,14.49 59.92,14.49 C59.92,14.49 57.1,13.18 52.04,15.24 C46.98,17.3 39.61,25.26 35.98,25.75 C31.1,26.41 28.28,21.62 26.31,22.84 Z" fill="#825948"/>
  <path d="M57.953,53.85 C58.139,56.761 56.318,59.245 53.888,59.4 C51.457,59.555 49.336,57.322 49.151,54.411 C48.965,51.501 50.785,49.016 53.216,48.861 C55.647,48.707 57.768,50.94 57.953,53.85 Z" fill="#00000D"/>
  <path d="M67.79,75.04 C64.55,77.71 60.86,79.67 58.52,80.93 C56.83,81.85 53.22,83.07 52.3,83.35 C51.38,83.63 54.6,83.66 56.45,83.7 C59.69,83.78 67.43,82.93 70.53,81.03 C73.63,79.13 76.04,72.35 76.54,70.52 C77.03,68.69 79.21,61.65 77.24,61.58 C75.27,61.51 71.71,71.81 67.79,75.04 Z" fill="#CD935F"/>
  <path d="M32.11,49.21 C32.11,49.21 25.07,57.09 23.94,58.36 C22.81,59.63 19.44,64.7 19.44,64.7 C19.44,64.7 14.3,66.6 11.77,69.77 C9.24,72.94 7.69,78.08 9.8,82.93 C11.91,87.78 15.57,91.31 21.48,89.62 C27.92,87.78 33.52,82.16 33.52,82.16 C33.52,82.16 42.04,82.51 44.64,82.37 C47.24,82.23 57.66,78.92 57.66,78.92 L36.61,44.22 L32.11,49.21 Z" fill="url(#SVGID_1_)"/>
  <path d="M17.96,70.12 C16.6,71.32 18.17,73.71 18.73,74.98 C19.29,76.25 18.8,78.71 20.56,78.78 C22.32,78.85 23.8,74.49 22.95,72.23 C22.11,69.98 19.72,68.57 17.96,70.12 Z" fill="#513635"/>
  <path d="M12.33,89.99 C12.33,89.99 14.96,88.3 16.51,87.32 C18.06,86.34 24.21,81.17 24.21,81.17 L26.04,82.81 C26.04,82.81 22.66,86.33 20.27,88.25 C17.88,90.17 16.42,90.74 14.97,90.88 C13.54,91.02 12.33,89.99 12.33,89.99 Z" fill="#2D3133"/>
  <path d="M26.41,79.06 C28.05,79.88 27.15,81.68 26.69,82.39 C26.08,83.33 24.63,84.45 23.45,83.47 C22.28,82.48 23.73,80.19 24.39,79.58 C24.87,79.12 25.84,78.78 26.41,79.06 Z" fill="#000502"/>
</svg>
